icons/desktop/20/video-game-controller-20.svg

<svg width="20" height="20" viewBox="0 0 20 20" fill="none" xmlns="http://www.w3.org/2000/svg">
<path d="M7.0003 7C7.41442 7.00011 7.7503 7.33585 7.7503 7.75V8.5H8.5003C8.91442 8.50011 9.2503 8.83585 9.2503 9.25C9.2503 9.66415 8.91442 9.99989 8.5003 10H7.7503V10.75C7.7503 11.1641 7.41442 11.4999 7.0003 11.5C6.58609 11.5 6.2503 11.1642 6.2503 10.75V10H5.5003C5.08609 10 4.7503 9.66421 4.7503 9.25C4.7503 8.83579 5.08609 8.5 5.5003 8.5H6.2503V7.75C6.2503 7.33579 6.58609 7 7.0003 7Z" fill="black"/>
<path d="M13.0003 8C13.8286 8.00011 14.5003 8.67164 14.5003 9.5C14.5003 10.3284 13.8286 10.9999 13.0003 11C12.1719 11 11.5003 10.3284 11.5003 9.5C11.5003 8.67157 12.1719 8 13.0003 8Z" fill="black"/>
<path fill-rule="evenodd" clip-rule="evenodd" d="M10.0003 3.00098C11.98 3.001 13.7381 3.20706 15.2142 3.48145C16.4137 3.70442 17.39 4.59472 17.6927 5.79297L18.7249 9.87402L19.8724 14.0576C20.2928 15.468 19.6528 17.0429 18.2405 17.7158C16.7209 18.4392 14.9956 17.7155 14.2083 16.3838L13.2903 14.9814C12.3281 14.8467 11.2231 14.749 9.99932 14.749C8.77075 14.749 7.66157 14.8468 6.69659 14.9814L5.79327 16.3818L5.79229 16.3809C5.00323 17.7176 3.26974 18.4427 1.74737 17.71C0.335322 17.031 -0.297177 15.4504 0.134088 14.0391L1.31182 9.74414L2.31085 5.79297C2.61359 4.59465 3.58967 3.70432 4.78936 3.48145C6.26539 3.20709 8.02155 3.00098 10.0003 3.00098ZM10.0003 4.75098C8.14325 4.75098 6.49457 4.94454 5.1087 5.20215C4.56454 5.30333 4.13841 5.70212 4.00713 6.22168L3.00811 10.1738C3.00672 10.1793 3.0057 10.185 3.0042 10.1904L1.82061 14.5029C1.81757 14.514 1.81432 14.5252 1.81085 14.5361C1.6162 15.1486 1.89121 15.8381 2.50616 16.1338C3.09419 16.4167 3.90595 16.1615 4.29815 15.4746L4.32256 15.4336L5.44366 13.6953C5.57897 13.4857 5.79773 13.3441 6.04424 13.3057C7.17185 13.1296 8.50351 12.999 9.99932 12.999C11.303 12.999 12.4815 13.0993 13.5091 13.2422L13.9407 13.3057L14.0745 13.3379C14.2055 13.3803 14.3259 13.4525 14.4241 13.5508L14.4251 13.5527L14.4857 13.6191C14.5045 13.6424 14.522 13.6673 14.5384 13.6924L15.6722 15.4258C15.6821 15.4409 15.6915 15.4569 15.7005 15.4727C16.0904 16.1587 16.8992 16.4156 17.4876 16.1357C18.1025 15.8427 18.3797 15.1569 18.1917 14.5459C18.1891 14.5375 18.1862 14.529 18.1839 14.5205L17.0325 10.3203C17.031 10.3148 17.0291 10.3093 17.0276 10.3037L15.9954 6.22168C15.8642 5.70206 15.4381 5.30331 14.8939 5.20215C13.5082 4.9446 11.8582 4.751 10.0003 4.75098Z" fill="black"/>
</svg>

<!-- This Source Code Form is subject to the terms of the Mozilla Public
   - License, v. 2.0. If a copy of the MPL was not distributed with this
   - file, You can obtain one at http://mozilla.org/MPL/2.0/. -->
<svg xmlns="http://www.w3.org/2000/svg" width="20" height="20" fill="context-fill" fill-opacity="context-fill-opacity" viewBox="0 0 20 20">
    <path d="M7 7a.75.75 0 0 1 .75.75v.75h.75a.75.75 0 0 1 0 1.5h-.75v.75a.75.75 0 0 1-1.5 0V10H5.5a.75.75 0 0 1 0-1.5h.75v-.75A.75.75 0 0 1 7 7M13 8a1.5 1.5 0 1 1 0 3 1.5 1.5 0 0 1 0-3" />
    <path fill-rule="evenodd" d="M10 3.001c1.98 0 3.738.206 5.214.48a3.14 3.14 0 0 1 2.479 2.312l1.032 4.081 1.147 4.184a3.08 3.08 0 0 1-1.631 3.658c-1.52.723-3.245 0-4.033-1.332l-.918-1.403A24 24 0 0 0 10 14.75c-1.23 0-2.338.098-3.303.232l-.904 1.4c-.79 1.337-2.523 2.062-4.046 1.329a3.075 3.075 0 0 1-1.613-3.67l1.178-4.296.999-3.951a3.14 3.14 0 0 1 2.478-2.312A28.5 28.5 0 0 1 10 3.001m0 1.75c-1.857 0-3.505.194-4.891.451-.544.101-.97.5-1.102 1.02l-.999 3.952-.004.016-1.183 4.313-.01.033c-.195.613.08 1.302.695 1.598.588.283 1.4.027 1.792-.66l.025-.04 1.12-1.739a.88.88 0 0 1 .601-.39 25.6 25.6 0 0 1 7.465-.063l.432.064.133.032a.9.9 0 0 1 .35.213l.001.002.06.066a1 1 0 0 1 .053.073l1.134 1.734q.015.022.028.047c.39.686 1.2.943 1.788.663a1.33 1.33 0 0 0 .704-1.59l-.008-.025-1.152-4.2-.004-.017-1.033-4.082a1.39 1.39 0 0 0-1.101-1.02A27 27 0 0 0 10 4.751" clip-rule="evenodd" />
</svg>
